src/assets/bell.svg

<svg width="40" height="40" viewBox="0 0 40 40" fill="none" xmlns="http://www.w3.org/2000/svg">
<rect width="40" height="40" rx="20" fill="#F2F2F2"/>
<path d="M20.0201 10.91C16.7101 10.91 14.0201 13.6 14.0201 16.91V19.8C14.0201 20.41 13.7601 21.34 13.4501 21.86L12.3001 23.77C11.5901 24.95 12.0801 26.26 13.3801 26.7C17.6901 28.14 22.3401 28.14 26.6501 26.7C27.8601 26.3 28.3901 24.87 27.7301 23.77L26.5801 21.86C26.2801 21.34 26.0201 20.41 26.0201 19.8V16.91C26.0201 13.61 23.3201 10.91 20.0201 10.91Z" stroke="#4C4C4C" stroke-width="1.5" stroke-miterlimit="10" stroke-linecap="round"/>
<path d="M21.8699 11.2C21.5599 11.11 21.2399 11.04 20.9099 11C19.9499 10.88 19.0299 10.95 18.1699 11.2C18.4599 10.46 19.1799 9.94 20.0199 9.94C20.8599 9.94 21.5799 10.46 21.8699 11.2Z" stroke="#4C4C4C" stroke-width="1.5" stroke-miterlimit="10" stroke-linecap="round" stroke-linejoin="round"/>
<path d="M23.02 27.06C23.02 28.71 21.67 30.06 20.02 30.06C19.2 30.06 18.44 29.72 17.9 29.18C17.36 28.64 17.02 27.88 17.02 27.06" stroke="#4C4C4C" stroke-width="1.5" stroke-miterlimit="10"/>
</svg>

<svg width="40" height="40" fill="none" xmlns="http://www.w3.org/2000/svg"><rect width="40" height="40" rx="20" fill="#F2F2F2"/><path d="M20.02 10.91c-3.31 0-6 2.69-6 6v2.89c0 .61-.26 1.54-.57 2.06l-1.15 1.91c-.71 1.18-.22 2.49 1.08 2.93 4.31 1.44 8.96 1.44 13.27 0 1.21-.4 1.74-1.83 1.08-2.93l-1.15-1.91c-.3-.52-.56-1.45-.56-2.06v-2.89c0-3.3-2.7-6-6-6z" stroke="#4C4C4C" stroke-width="1.5" stroke-miterlimit="10" stroke-linecap="round"/><path d="M21.87 11.2a6.754 6.754 0 00-3.7 0c.29-.74 1.01-1.26 1.85-1.26.84 0 1.56.52 1.85 1.26z" stroke="#4C4C4C" stroke-width="1.5" stroke-miterlimit="10" stroke-linecap="round" stroke-linejoin="round"/><path d="M23.02 27.06c0 1.65-1.35 3-3 3-.82 0-1.58-.34-2.12-.88a3.01 3.01 0 01-.88-2.12" stroke="#4C4C4C" stroke-width="1.5" stroke-miterlimit="10"/></svg>
